X:92
T:Wellington Hornpipe
S:John Moore's Book 2
Z:Transcribed by Steve Mansfield 05/2021
%%VWML: Moore2-4494-p72-0
F:http://www.vwml.org/record/Moore2/4494/p72
M:C
L:1/8
K:G
G2ge dcBA | (3Bcd FA GFED | A>D (3DDD B>D (3DDD | cABG GFED | 
G2ge dcBA | (3Bcd FA GFED | GBAc Bdge | (3ded (3cBA G2z2 :| 
|: b3a gfe^d | e^def e2B2 | e^def gfga | bgfg e3f | 
g3e dcBA | BdFA GFED | GBAc Bdge | (3ded (3cBA G2 z2 :| 

